dist/assets/symbols/pen.svg

<svg viewBox="0 0 20 20" fill="none" xmlns="http://www.w3.org/2000/svg">
    <path d="M2 18L10 18H18" stroke="currentColor" stroke-width="1.5" stroke-linecap="round" stroke-linejoin="round"/>
    <path d="M10.1969 4.51381L12.7111 1.99966L17.1108 6.39941L14.5967 8.91356M10.1969 4.51381L5.24587 9.46488C5.05833 9.65242 4.95297 9.90677 4.95297 10.172L4.95298 14.1575L8.93851 14.1575C9.20373 14.1575 9.45808 14.0522 9.64562 13.8646L14.5967 8.91356M10.1969 4.51381L14.5967 8.91356" stroke="currentColor" stroke-width="1.5" stroke-linecap="round" stroke-linejoin="round"/>
</svg>

<svg xmlns="http://www.w3.org/2000/svg" fill="none" viewBox="0 0 20 20"><path stroke="currentColor" stroke-linecap="round" stroke-linejoin="round" stroke-width="1.5" d="M2 18h16M10.197 4.514 12.71 2l4.4 4.4-2.514 2.514m-4.4-4.4-4.951 4.95a1 1 0 0 0-.293.708v3.986h3.986a1 1 0 0 0 .707-.293l4.95-4.951m-4.4-4.4 4.4 4.4"/></svg>
